X: 1
T: Da Gloup Lasses
M: 4/4
L: 1/8
R: Reel
K: D
FG | A2 f>g ffed | GBGB d2 cB | A2 d>c dBcd | e2 e>f edcB |
Af f>g ffed | GBGB d2 cB | A2 d>e ffec | d2 d>c d2 ||
dc | B2 B>B BdcB | A>BAF A2 Bc | d2 d>c dBcd | e2 e>f edcB |
Af f>g ffed | GBGB d2 cB | A2 d>e ffec | d2 d>c d2 ||
